src/components/ProtocolIcon/polygonZkEvm.svg

<svg width="15" height="17" viewBox="0 0 15 17" fill="none" xmlns="http://www.w3.org/2000/svg">
<path fill-rule="evenodd" clip-rule="evenodd" d="M7.14077 1.35573L13.1258 4.81117V5.41939L12.5214 6.56763C12.1918 7.19384 11.5424 7.5859 10.8348 7.5859H3.49047C2.56755 7.5859 1.71471 8.00933 1.15578 8.70463L1.15578 4.81117L7.14077 1.35573ZM1.15578 11.2078V11.722L7.14077 15.1775L13.1258 11.722V7.60935C12.5637 8.27682 11.7288 8.67504 10.8348 8.67504H3.49047C2.7111 8.67504 2.01026 9.14953 1.72081 9.87315L1.24785 11.0555C1.22503 11.1126 1.19365 11.1636 1.15578 11.2078ZM14.2149 5.621V11.722C14.2149 12.1111 14.0073 12.4707 13.6703 12.6653L7.68534 16.1207C7.34836 16.3152 6.93318 16.3152 6.5962 16.1207L0.611216 12.6653C0.274238 12.4707 0.0666504 12.1111 0.0666504 11.722V4.81117C0.0666504 4.42206 0.274238 4.06251 0.611216 3.86795L6.5962 0.412517C6.93318 0.217963 7.34836 0.217963 7.68534 0.412518L13.6703 3.86795C14.0073 4.06251 14.2149 4.42206 14.2149 4.81117V5.46733C14.2221 5.51784 14.2223 5.56958 14.2149 5.621ZM3.32876 5.13535C3.32876 4.53384 3.81638 4.04622 4.41789 4.04622H5.77931C6.38082 4.04622 6.86844 4.53384 6.86844 5.13535V6.76905H5.77931V5.13535H4.41789V6.76905H3.32876V5.13535ZM4.41789 12.3508C3.81638 12.3508 3.32876 11.8632 3.32876 11.2617V9.62799H4.41789V11.2617H5.77931V9.62799H6.86844V11.2617C6.86844 11.8632 6.38082 12.3508 5.77931 12.3508H4.41789ZM7.68522 5.13535C7.68522 4.53384 8.17284 4.04622 8.77435 4.04622H10.1358C10.7373 4.04622 11.2249 4.53384 11.2249 5.13535V6.76905H10.1358V5.13535H8.77435V6.76905H7.68522V5.13535ZM8.77435 12.3508C8.17284 12.3508 7.68522 11.8632 7.68522 11.2617V9.62799H8.77435V11.2617H10.1358V9.62799H11.2249V11.2617C11.2249 11.8632 10.7373 12.3508 10.1358 12.3508H8.77435Z" fill="#7B4EE7"/>
</svg>

<svg xmlns="http://www.w3.org/2000/svg" width="15" height="17" fill="none"><path fill="#7B4EE7" fill-rule="evenodd" d="m7.14 1.356 5.986 3.455v.608l-.605 1.149a1.91 1.91 0 0 1-1.686 1.018H3.49c-.922 0-1.775.423-2.334 1.119V4.81zm-5.984 9.852v.514l5.985 3.456 5.985-3.456V7.609a3 3 0 0 1-2.291 1.066H3.49c-.779 0-1.48.475-1.77 1.198l-.472 1.183a.5.5 0 0 1-.092.152M14.215 5.62v6.101c0 .39-.208.749-.545.943l-5.985 3.456a1.09 1.09 0 0 1-1.089 0L.611 12.665a1.09 1.09 0 0 1-.544-.943v-6.91c0-.39.207-.75.544-.944L6.596.413a1.09 1.09 0 0 1 1.09 0l5.984 3.455c.337.195.545.554.545.943v.656a.5.5 0 0 1 0 .154M3.329 5.135c0-.601.487-1.089 1.089-1.089h1.361c.602 0 1.09.488 1.09 1.09v1.633h-1.09V5.135H4.418V6.77h-1.09zm1.089 7.216a1.09 1.09 0 0 1-1.09-1.09V9.629h1.09v1.634h1.361V9.628h1.09v1.634a1.09 1.09 0 0 1-1.09 1.089zm3.267-7.216c0-.601.488-1.089 1.09-1.089h1.36c.602 0 1.09.488 1.09 1.09v1.633h-1.09V5.135h-1.36V6.77h-1.09zm1.09 7.216a1.09 1.09 0 0 1-1.09-1.09V9.629h1.09v1.634h1.36V9.628h1.09v1.634a1.09 1.09 0 0 1-1.09 1.089z" clip-rule="evenodd"/></svg>
